app/assets/v2/images/avatar/Makeup/kiss.svg

<svg height="1073" viewBox="0 0 1650 1073" width="1650" xmlns="http://www.w3.org/2000/svg"><g fill="none" fill-rule="evenodd"><path d="m.5 299.5h1649v773h-1649z" opacity=".006138" stroke="#fff"/><g transform="translate(503)"><g fill="#fdfdfb" transform="translate(146 398)"><path d="m235.816481 25.4726667c-.160629 9.3538277 15.369455 15.0538889 23.013958 17.1736833 11.151242 3.0921722 24.049972 4.2006611 36.607742 4.09395 60.844886-.5164056 72.627697-29.0428444 34.247567-41.80380556-12.064664-4.01119444-22.129543-4.53413333-35.038123-1.40248888-13.504576 3.27619444-49.758771 15.18210554-58.831144 21.93866114z"/><path d="m116.841798 24.1523889c-5.816017-2.1067278-16.868474-7.8168611-28.1849972-11.9369445-21.5540706-7.8478944-43.0575171-16.41173329-65.9798047-8.33027218-38.7635046 13.66609998-24.8897837 41.78175558 35.2805713 41.71261108 18.6471566-.0215055 56.3040476-4.1892277 58.8842306-21.4453944z"/></g><path d="m250.443265 436.556954c-20.353255 25.620982-21.672913 31.028142-71.814187 30.02869-50.141547-.999726-86.1171395-41.004071-49.494844-60.728694 36.622296-19.724622 76.411116 28.095412 121.309031 30.700004zm200.20305-436.556954h-263.089172c69.893491 56.3863393 105.03124 171.836347 135.64425 308.285245 13.598278-136.892157 84.440359-275.5261778 127.444922-308.285245zm-56.08958 436.556954c20.353255 25.620982 21.672913 31.028142 71.814187 30.02869 50.141547-.999726 86.11714-41.004071 49.494844-60.728694-36.622296-19.724622-76.411116 28.095412-121.309031 30.700004zm-30.513749 280.442773c-.015039-49.313881-3.520638-100.184228-3.519544-149.96051.000546-20.687432-1.141644-16.394299-6.429848-32.142442-11.128772-33.140253-3.753616-66.826035 4.734472-99.285951-25.105228-25.425739-37.568698-82.596054-12.264947-106.675882l36.275838 35.382527c13.139432-6.114023 13.960049-8.285474 21.718852-16.841661 23.541928-25.961697 21.558339-74.744542 14.77629-108.70514-1.914407-9.587086-10.344797-32.844656-13.118103-43.510494 24.412858 22.656805 51.781412 63.326722 52.81231 96.726478h2.254029c12.010367-60.862683 15.219549-141.731366-2.329774-200.9115232 65.76826 59.0283932 48.461212 154.5470522 74.819924 170.1144452 21.756314-85.334089 4.101714-168.8609597-26.092921-249.9976219 129.746804 148.9060939 57.116376 348.8129689 68.616763 379.9641619 2.681975 7.264966 20.331379 26.908374 40.546543 3.369426 13.758792-16.021043 10.577229-19.896348 17.768081-27.787783 15.578312 45.190012-11.16514 59.937061-2.104179 72.442384 16.296932 22.491096 16.488892 67.899593 1.518181 95.842421-2.85452-25.397028-8.45254-40.558898-39.499785-21.033619-39.863745 25.071625-36.724566 67.738259-58.223293 97.552838-8.871462 12.303245-27.165382 32.409874-39.872221 38.032785 20.801709-80.401634-57.454904-106.631857-90.158969-84.842156-13.677577 9.112654-24.840531 48.505843-28.749738 68.420785-1.756628 8.946944-12.660352 77.124907-13.477961 83.846805zm-83.085972 0c.015039-49.313881 3.520638-100.184228 3.519544-149.96051-.000546-20.687432 1.141644-16.394299 6.429848-32.142442 11.128772-33.140253 3.753616-66.826035-4.734472-99.285951 25.105228-25.425739 37.568698-82.596054 12.264947-106.675882l-36.275838 35.382527c-13.139432-6.114023-13.960049-8.285474-21.718852-16.841661-23.541928-25.961697-21.558339-74.744542-14.77629-108.70514 1.914407-9.587086 10.344797-32.844656 13.118103-43.510494-24.412858 22.656805-51.781412 63.326722-52.81231 96.726478h-2.254029c-12.010367-60.862683-15.219549-141.731366 2.329774-200.9115232-65.76826 59.0283932-48.461212 154.5470522-74.819924 170.1144452-21.7563143-85.334089-4.101714-168.8609597 26.092921-249.9976219-129.74680413 148.9060939-57.1163759 348.8129689-68.6167634 379.9641619-2.6819745 7.264966-20.3313791 26.908374-40.5465429 3.369426-13.7587916-16.021043-10.5772283-19.896348-17.7680809-27.787783-15.57831218 45.190012 11.1651407 59.937061 2.1041796 72.442384-16.29693258 22.491096-16.48889282 67.899593-1.5181813 95.842421 2.8545199-25.397028 8.4525401-40.558898 39.4997854-21.033619 39.8637441 25.071625 36.7245652 67.738259 58.2232925 97.552838 8.871462 12.303245 27.165382 32.409874 39.872221 38.032785-20.801709-80.401634 57.454904-106.631857 90.158969-84.842156 13.677577 9.112654 24.840531 48.505843 28.749738 68.420785 1.756628 8.946944 12.660352 77.124907 13.477961 83.846805z" fill="#000"/></g></g></svg>

<?xml version="1.0" encoding="UTF-8"?>
<svg width="1650px" height="1073px" viewBox="0 0 1650 1073" version="1.1" xmlns="http://www.w3.org/2000/svg" xmlns:xlink="http://www.w3.org/1999/xlink">
    <!-- Generator: Sketch 51.3 (57544) - http://www.bohemiancoding.com/sketch -->
    <title>kiss</title>
    <desc>Created with Sketch.</desc>
    <defs></defs>
    <g id="Page-1" stroke="none" stroke-width="1" fill="none" fill-rule="evenodd">
        <g id="kiss">
            <rect id="Rectangle" stroke="#FFFFFF" opacity="0.00613839286" x="0.5" y="299.5" width="1649" height="773"></rect>
            <g id="Group-2" transform="translate(503.000000, 0.000000)">
                <g id="Kiss_Mask_01">
                    <g id="_500812016" transform="translate(146.000000, 398.000000)" fill="#FDFDFB">
                        <path d="M235.816481,25.4726667 C235.655852,34.8264944 251.185936,40.5265556 258.830439,42.64635 C269.981681,45.7385222 282.880411,46.8470111 295.438181,46.7403 C356.283067,46.2238944 368.065878,17.6974556 329.685748,4.93649444 C317.621084,0.9253 307.556205,0.402361111 294.647625,3.53400556 C281.143049,6.8102 244.888854,18.7161111 235.816481,25.4726667 Z" id="_500812232"></path>
                        <path d="M116.841798,24.1523889 C111.025781,22.0456611 99.973324,16.3355278 88.6568008,12.2154444 C67.1027302,4.36755 45.5992837,-4.19628889 22.6769961,3.88517222 C-16.0865085,17.5512722 -2.2127876,45.6669278 57.9575674,45.5977833 C76.604724,45.5762778 114.261615,41.4085556 116.841798,24.1523889 Z" id="_500798312"></path>
                    </g>
                    <path d="M250.443265,436.556954 C230.09001,462.177936 228.770352,467.585096 178.629078,466.585644 C128.487531,465.585918 92.5119385,425.581573 129.134234,405.85695 C165.75653,386.132328 205.54535,433.952362 250.443265,436.556954 Z M450.646315,0 L187.557143,0 C257.450634,56.3863393 292.588383,171.836347 323.201393,308.285245 C336.799671,171.393088 407.641752,32.7590672 450.646315,0 Z M394.556735,436.556954 C414.90999,462.177936 416.229648,467.585096 466.370922,466.585644 C516.512469,465.585918 552.488062,425.581573 515.865766,405.85695 C479.24347,386.132328 439.45465,433.952362 394.556735,436.556954 Z M364.042986,716.999727 C364.027947,667.685846 360.522348,616.815499 360.523442,567.039217 C360.523988,546.351785 359.381798,550.644918 354.093594,534.896775 C342.964822,501.756522 350.339978,468.07074 358.828066,435.610824 C333.722838,410.185085 321.259368,353.01477 346.563119,328.934942 L382.838957,364.317469 C395.978389,358.203446 396.799006,356.031995 404.557809,347.475808 C428.099737,321.514111 426.116148,272.731266 419.334099,238.770668 C417.419692,229.183582 408.989302,205.926012 406.215996,195.260174 C430.628854,217.916979 457.997408,258.586896 459.028306,291.986652 L461.282335,291.986652 C473.292702,231.123969 476.501884,150.255286 458.952561,91.0751288 C524.720821,150.103522 507.413773,245.622181 533.772485,261.189574 C555.528799,175.855485 537.874199,92.3286143 507.679564,11.1919521 C637.426368,160.098046 564.79594,360.004921 576.296327,391.156114 C578.978302,398.42108 596.627706,418.064488 616.84287,394.52554 C630.601662,378.504497 627.420099,374.629192 634.610951,366.737757 C650.189263,411.927769 623.445811,426.674818 632.506772,439.180141 C648.803704,461.671237 648.995664,507.079734 634.024953,535.022562 C631.170433,509.625534 625.572413,494.463664 594.525168,513.988943 C554.661423,539.060568 557.800602,581.727202 536.301875,611.541781 C527.430413,623.845026 509.136493,643.951655 496.429654,649.574566 C517.231363,569.172932 438.97475,542.942709 406.270685,564.73241 C392.593108,573.845064 381.430154,613.238253 377.520947,633.153195 C375.764319,642.100139 364.860595,710.278102 364.042986,717 L364.042986,716.999727 Z M280.957014,716.999727 C280.972053,667.685846 284.477652,616.815499 284.476558,567.039217 C284.476012,546.351785 285.618202,550.644918 290.906406,534.896775 C302.035178,501.756522 294.660022,468.07074 286.171934,435.610824 C311.277162,410.185085 323.740632,353.01477 298.436881,328.934942 L262.161043,364.317469 C249.021611,358.203446 248.200994,356.031995 240.442191,347.475808 C216.900263,321.514111 218.883852,272.731266 225.665901,238.770668 C227.580308,229.183582 236.010698,205.926012 238.784004,195.260174 C214.371146,217.916979 187.002592,258.586896 185.971694,291.986652 L183.717665,291.986652 C171.707298,231.123969 168.498116,150.255286 186.047439,91.0751288 C120.279179,150.103522 137.586227,245.622181 111.227515,261.189574 C89.4712007,175.855485 107.125801,92.3286143 137.320436,11.1919521 C7.57363187,160.098046 80.2040601,360.004921 68.7036726,391.156114 C66.0216981,398.42108 48.3722935,418.064488 28.1571297,394.52554 C14.3983381,378.504497 17.5799014,374.629192 10.3890488,366.737757 C-5.18926338,411.927769 21.5541895,426.674818 12.4932284,439.180141 C-3.80370418,461.671237 -3.99566442,507.079734 10.9750471,535.022562 C13.829567,509.625534 19.4275872,494.463664 50.4748325,513.988943 C90.3385766,539.060568 87.1993977,581.727202 108.698125,611.541781 C117.569587,623.845026 135.863507,643.951655 148.570346,649.574566 C127.768637,569.172932 206.02525,542.942709 238.729315,564.73241 C252.406892,573.845064 263.569846,613.238253 267.479053,633.153195 C269.235681,642.100139 280.139405,710.278102 280.957014,717 L280.957014,716.999727 Z" id="Shape" fill="#000000"></path>
                </g>
            </g>
        </g>
    </g>
</svg>
